svg/flash_auto.svg

<svg xmlns="http://www.w3.org/2000/svg" viewBox="0 0 24 24"><path d="M16.85 7.65 18 4l1.15 3.65M19 2h-2l-3.2 9h1.9l.7-2h3.2l.7 2h1.9M3 2v12h3v9l7-12H9l4-9z"/></svg>

<?xml version="1.0" encoding="UTF-8"?><!DOCTYPE svg PUBLIC "-//W3C//DTD SVG 1.1//EN" "http://www.w3.org/Graphics/SVG/1.1/DTD/svg11.dtd"><svg xmlns="http://www.w3.org/2000/svg" xmlns:xlink="http://www.w3.org/1999/xlink" version="1.1" id="mdi-flash-auto" width="24" height="24" viewBox="0 0 24 24"><path d="M16.85,7.65L18,4L19.15,7.65M19,2H17L13.8,11H15.7L16.4,9H19.6L20.3,11H22.2M3,2V14H6V23L13,11H9L13,2H3Z" /></svg>
